X: 124
T: Morning Star
Z: 1997 by John Chambers <jc:trillian.mit.edu>
B: NEFR #124
M: C|
L: 1/8
K: G
   GA \
| "G"B2 BA "Em"BG EF | "G"GA Bd "C"ef ed | "G"B2BA "Em"BG EG | "D7"FG AF "G"G2 :|
| GA \
| "Em"Bd ef g2 eg | "D"f2 df "Em"ed BA | "Em"Bd ef g2 fg | "D7"ag fg "Em"e4 |
| "Em"((3Bcd) ef g2 eg | "D"f2 df "Em"ed BA | "G"Bd d^c d2 ef | "C"ge "D7"af "G"gf "(D7)"ed |]


